src/topics/icons/pouchdb.svg

<svg height="330" preserveAspectRatio="xMidYMid" viewBox="0 0 256 330" width="256" xmlns="http://www.w3.org/2000/svg"><g fill-opacity=".9"><path d="m18.7517656 0-18.7517656 91.4585788 53.7815678 50.7433262-34.9425934 62.288644 71.1014212 125.186814h77.7846154l71.406183-125.186814-35.24548-62.288644 51.959561-50.7433262-17.106052-91.4585788-73.140044 97.4094066h-73.2272523z" fill="#6ccb94"/><path d="m18.8389744 204.490549 34.9416556-62.288644 75.044571 62.289582z" fill="#5dbd85"/><path d="m53.7815678 142.202842 75.0445712 62.289583-36.45515-107.0811429z" fill="#64c48c"/><path d="m239.130256 204.490549-35.246417-62.288644-75.055824 62.289582z" fill="#6ecc95"/><path d="m89.9394579 329.677363h77.7846151l-38.896996-125.186814z" fill="#5ebe86"/><path d="m203.883839 142.202842-75.055824 62.289583 36.771164-107.0811429z" fill="#76d29c"/><path d="m238.739223 0 17.102301 91.4595165-51.957685 50.7433255-38.285597-44.7924977z" fill="#74d09b"/><path d="m128.825201 204.490549 38.89981 125.186814 71.405245-125.186814z" fill="#64c48c"/><path d="m128.825201 204.490549-38.8969959 125.186814-71.0892307-125.186814z" fill="#58b880"/><path d="m18.7517656 0-18.7517656 91.4604542 53.7815678 50.7433258 38.5894212-44.7924979z" fill="#5fbf87"/><path d="m128.825201 204.490549 36.773041-107.0792669h-73.227253z" fill="#6ecc95"/></g></svg>

<?xml version="1.0" encoding="UTF-8" standalone="no"?>
<svg width="256px" height="330px" viewBox="0 0 256 330" version="1.1" xmlns="http://www.w3.org/2000/svg" xmlns:xlink="http://www.w3.org/1999/xlink" preserveAspectRatio="xMidYMid">
        <g fill-opacity="0.9">
            <path d="M18.7517656,0 L0,91.4585788 L53.7815678,142.201905 L18.8389744,204.490549 L89.9403956,329.677363 L167.725011,329.677363 L239.131194,204.490549 L203.885714,142.201905 L255.845275,91.4585788 L238.739223,0 L165.599179,97.4094066 L92.3719267,97.4094066 L18.7517656,0 Z" fill="#6CCB94"></path>
            <path d="M18.8389744,204.490549 L53.78063,142.201905 L128.825201,204.491487 L18.8389744,204.490549 Z" fill="#5DBD85"></path>
            <path d="M53.7815678,142.202842 L128.826139,204.492425 L92.370989,97.4112821 L53.7815678,142.202842 Z" fill="#64C48C"></path>
            <path d="M239.130256,204.490549 L203.883839,142.201905 L128.828015,204.491487 L239.130256,204.490549 Z" fill="#6ECC95"></path>
            <path d="M89.9394579,329.677363 L167.724073,329.677363 L128.827077,204.490549 L89.9394579,329.677363 Z" fill="#5EBE86"></path>
            <path d="M203.883839,142.202842 L128.828015,204.492425 L165.599179,97.4112821 L203.883839,142.202842 Z" fill="#76D29C"></path>
            <path d="M238.739223,0 L255.841524,91.4595165 L203.883839,142.202842 L165.598242,97.4103443 L238.739223,0 Z" fill="#74D09B"></path>
            <path d="M128.825201,204.490549 L167.725011,329.677363 L239.130256,204.490549 L128.825201,204.490549 Z" fill="#64C48C"></path>
            <path d="M128.825201,204.490549 L89.9282051,329.677363 L18.8389744,204.490549 L128.825201,204.490549 Z" fill="#58B880"></path>
            <path d="M18.7517656,0 L0,91.4604542 L53.7815678,142.20378 L92.370989,97.4112821 L18.7517656,0 Z" fill="#5FBF87"></path>
            <path d="M128.825201,204.490549 L165.598242,97.4112821 L92.370989,97.4112821 L128.825201,204.490549 Z" fill="#6ECC95"></path>
        </g>
</svg>
